assets/gcpvirtualprivatecloud/original.svg

<svg height="24" width="24" xmlns="http://www.w3.org/2000/svg"><path d="m16 2h6v6h-6z" fill="#aecbfa"/><path d="m19 2h3v6h-3z" fill="#669df6"/><path d="m16 16h6v6h-6z" fill="#aecbfa"/><path d="m19 16h3v6h-3z" fill="#669df6"/><path d="m2 2h6v6h-6z" fill="#aecbfa"/><path d="m5 2h3v6h-3z" fill="#669df6"/><path d="m2 16h6v6h-6z" fill="#aecbfa"/><path d="m5 16h3v6h-3zm3-12h8v2h-8zm0 14h8v2h-8zm10-10h2v8h-2zm-14 0h2v8h-2z" fill="#669df6"/><path d="m4 8h2v2h-2zm14 0h2v2h-2zm-10-4h2v2h-2zm0 14h2v2h-2z" fill="#4285f4"/></svg>

<svg xmlns="http://www.w3.org/2000/svg" width="24" height="24"><path fill="#aecbfa" d="M16 2h6v6h-6z"/><path fill="#669df6" d="M19 2h3v6h-3z"/><path fill="#aecbfa" d="M16 16h6v6h-6z"/><path fill="#669df6" d="M19 16h3v6h-3z"/><path fill="#aecbfa" d="M2 2h6v6H2z"/><path fill="#669df6" d="M5 2h3v6H5z"/><path fill="#aecbfa" d="M2 16h6v6H2z"/><path fill="#669df6" d="M5 16h3v6H5zM8 4h8v2H8zm0 14h8v2H8zM18 8h2v8h-2zM4 8h2v8H4z"/><path fill="#4285f4" d="M4 8h2v2H4zm14 0h2v2h-2zM8 4h2v2H8zm0 14h2v2H8z"/></svg>
